X:328
T: "Ottilie"
N: Z1008
O: Europa, Mitteleuropa, Deutschland, Rhein
R: Romanze, Ballade, Sage
M: 4/4
L: 1/8
K: G
D2 | G2BBA2dc | B2ABG2z
B | A2AGFGAG | F2EED2z
D | G2GGA2A2 | d4c2
B2 | A8 | G2z4

